!!!COM:	Martini, Johannes
!!!CDT:	~1440///-~1497//
!!!OTL:	Laudate Dominum quoniam bonus est
!!!AGN:	Motet
!!!SCT:	Mar2063
!!!SCA:	Mar2063
!!!voices:	2
**kern	**kern
*staff2	*staff1
*Ivox	*Ivox
*I"Tenor	*I"Superius
*I'T	*I'S
*>[A,B,C,D,E,F,G,H,I,J,K,L,M,N]	*>[A,B,C,D,E,F,G,H,I,J,K,L,M,N]
*>A	*>A
*clefGv2	*clefG2
*k[]	*k[]
*M2/1	*M2/1
*met(C)	*met(C)
!!section: Deo nostro
!!!OMD: Deo nostro
=1-	=1-
!!LO:TX:Z=8:t=Choir 1
2e\	2cc\
2e\	2cc\
1e	1cc
=2	=2
1e	1cc
2d\	2b\
2c\	2a/
=3	=3
1d	1b
1c	1cc
=4	=4
2e\	2cc\
2e\	2cc\
2d\	2b\
2c\	2a/
=5	=5
2d\	2b\
1e	1cc
4d\	4b\
4c\	4a/
=6	=6
2B\	2g/
2A/	1a
1B	.
.	2g#i/
=7	=7
0Al	0al
=8||	=8||
*>B	*>B
!!section: Hedificans Jerusalem
!!!OMD: Hedificans Jerusalem
!!LO:TX:Z=8:t=Choir 2
1e	1cc
2e\	2cc\
2e\	2cc\
=9	=9
1e	1cc
2e\	2cc\
2e\	2cc\
=10	=10
2e\	2cc\
1f	1dd
2e\	[2cc\
=11	=11
1d	2cc\]
.	2b\
1c	1cc
=12	=12
1r	1r
2e\	2cc\
2e\	2cc\
=13	=13
2e\	2cc\
2e\	2cc\
1c	1cc
=14	=14
2d\	2b\
2c\	2a/
2d\	2b\
[2e\	[2cc\
=15	=15
2e\]	2cc\]
1d	1b
2c\	[2a/
=16	=16
1B	2a/]
.	2g#i/
1Al	1al
=17||	=17||
*>C	*>C
!!section: Qui sanat
!!!OMD: Qui sanat
!!LO:TX:Z=8:t=Choir 1
1e	1cc
2e\	2cc\
2e\	2cc\
=18	=18
1e	1cc
2d\	2b\
2e\	2cc\
=19	=19
1f	1dd
1c	1cc
=20	=20
1r	1r
1e	1cc
=21	=21
2e\	2cc\
2e\	2cc\
1e	1cc
=22	=22
2d\	2b\
2c\	2a/
2d\	2b\
[2e\	[2cc\
=23	=23
2e\]	2cc\]
4d\	4b\
4c\	4a/
2B\	2g/
2A/	[2a/
=24	=24
1B	2a/]
.	2g#i/
1Al	1al
=25||	=25||
*>D	*>D
!!LO:TX:Z=8:t=Choir 2
!!section: Qui numerat
!!!OMD: Qui numerat
1e	1cc
2e\	2cc\
2e\	2cc\
=26	=26
1c	1cc
2e\	2cc\
2e\	2cc\
=27	=27
2e\	2cc\
2e\	2cc\
1e	1cc
=28	=28
2f\	2dd\
2e\	1cc
1d	.
.	2b\
=29	=29
1c	1cc
1r	1r
=30	=30
1e	1cc
2e\	2cc\
2e\	2cc\
=31	=31
1e	1cc
2d\	2b\
2c\	2a/
=32	=32
2d\	2b\
1e	1cc
2c\	[2a/
=33	=33
1B	2a/]
.	2g#i/
1Al	1al
=34||	=34||
!!section: Magnus Dominus
!!!OMD:	Magnus Dominus
*>E	*>E
!!LO:TX:Z=8:t=Choir 1
1e	1cc
1e	1cc
=35	=35
2e\	2cc\
2e\	2cc\
2e\	2cc\
2e\	2cc\
=36	=36
1c	1cc
2e\	2cc\
2e\	2cc\
=37	=37
2e\	2cc\
2d\	2b\
2e\	2cc\
[2f\	[2dd\
=38	=38
2f\]	2dd\]
2e\	1cc
1d	.
.	2b\
=39	=39
1c	1cc
1r	1r
=40	=40
1e	1cc
2e\	2cc\
2e\	2cc\
=41	=41
2e\	2cc\
2e\	2cc\
1e	1cc
=42	=42
2d\	2b\
2c\	2a/
2d\	2b\
[2e\	[2cc\
=43	=43
2e\]	2cc\]
4d\	4b\
4c\	4a/
2B\	2g/
2A/	[2a/
=44	=44
1B	2a/]
.	2g#i/
1Al	1al
=45||	=45||
*>F	*>F
!!section: Suscipiens mansuetos
!!!OMD: Suscipiens mansuetos
!!LO:TX:Z=8:t=Choir 2
1e	1cc
2e\	2cc\
2e\	2cc\
=46	=46
1e	1cc
2e\	2cc\
2d\	2b\
=47	=47
2e\	2cc\
1f	1dd
2e\	[2cc\
=48	=48
1d	2cc\]
.	2b\
1c	1cc
=49	=49
1r	1r
1e	1cc
=50	=50
2e\	2cc\
2e\	2cc\
2e\	2cc\
2e\	2cc\
=51	=51
1e	1cc
2d\	2b\
2c\	2a/
=52	=52
2d\	2b\
1e	1cc
2d\	4b\
.	4a/
=53	=53
2B\	2g/
2A/	1a
1B	.
.	2g#i/
=54	=54
0Al	0al
=55||	=55||
*>G	*>G
!!LO:TX:Z=8:t=Choir 1
!!section: Precinite Domino
!!!OMD: Precinite Domino
2e\	2cc\
2e\	2cc\
2e\	2cc\
2e\	2cc\
=56	=56
2e\	2cc\
2e\	2cc\
1c	1cc
=57	=57
2d\	2b\
2e\	2cc\
2f\	2dd\
2e\	[2cc\
=58	=58
1d	2cc\]
.	2b\
1c	1cc
=59	=59
1r	1r
2e\	2cc\
2e\	2cc\
=60	=60
1e	1cc
2e\	2cc\
2e\	2cc\
=61	=61
1e	1cc
1e	1cc
=62	=62
2d\	2b\
1e	1cc
4d\	4b\
4c\	4a/
=63	=63
2B\	2g/
2A/	1a
1B	.
.	2g#i/
=64	=64
0Al	0al
=65||	=65||
*>H	*>H
!!section: Qui operit
!!!OMD: Qui operit
!!LO:TX:Z=8:t=Choir 2
1e	1cc
2e\	2cc\
2e\	2cc\
=66	=66
1e	1cc
2e\	2cc\
[2f\	[2dd\
=67	=67
2f\]	2dd\]
2e\	1cc
1d	.
.	2b\
=68	=68
1c	1cc
1r	1r
=69	=69
1e	1cc
2d\	2b\
2c\	2a/
=70	=70
2d\	2b\
1e	1cc
4d\	4b\
4c\	4a/
=71	=71
2B\	2g/
2A/	1a
1B	.
.	2g#i/
=72	=72
0Al	0al
=73||	=73||
*>I	*>I
!!section: Qui producit
!!!OMD: Qui producit
!!LO:TX:Z=8:t=Choir 1
1e	1cc
2e\	2cc\
2e\	2cc\
=74	=74
1e	1cc
2d\	2b\
2e\	2cc\
=75	=75
2f\	2dd\
2e\	1cc
1d	.
.	2b\
=76	=76
1c	1cc
1r	1r
=77	=77
2e\	2cc\
2e\	2cc\
1e	1cc
=78	=78
2d\	2b\
2c\	2a/
2d\	2b\
[2e\	[2cc\
=79	=79
2e\]	2cc\]
4d\	4b\
4c\	4a/
2B\	2g/
2A/	[2a/
=80	=80
1B	2a/]
.	2g#i/
1Al	1al
=81||	=81||
*>J	*>J
!!LO:TX:Z=8:t=Choir 2
!!section: Qui dat jumentis
!!!OMD: Qui dat jumentis
2e\	2cc\
2e\	2cc\
2e\	2cc\
2e\	2cc\
=82	=82
1c	1cc
1e	1cc
=83	=83
2d\	2b\
2e\	2cc\
1f	1dd
=84	=84
1c	1cc
1r	1r
=85	=85
1e	1cc
2e\	2cc\
2e\	2cc\
=86	=86
2e\	2cc\
2e\	2cc\
1e	1cc
=87	=87
2d\	2b\
2c\	2a/
2d\	2b\
[2e\	[2cc\
=88	=88
2e\]	2cc\]
4d\	4b\
4c\	4a/
2B\	2g/
2A/	[2a/
=89	=89
1B	2a/]
.	2g#i/
1Al	1al
=90||	=90||
*>K	*>K
!!section: Non in fortitudine
!!!OMD: Non in fortitudine
!!LO:TX:Z=8:t=Choir 1
2e\	2cc\
2e\	2cc\
2e\	2cc\
2e\	2cc\
=91	=91
2e\	2cc\
2e\	2cc\
1c	1cc
=92	=92
2e\	2cc\
2e\	2cc\
2e\	2cc\
2d\	2b\
=93	=93
2e\	2cc\
1f	1dd
2e\	[2cc\
=94	=94
1d	2cc\]
.	2b\
1c	1cc
=95	=95
1r	1r
1e	1cc
=96	=96
2e\	2cc\
2e\	2cc\
2e\	2cc\
2e\	2cc\
=97	=97
1c	1cc
2e\	2cc\
2e\	2cc\
=98	=98
2d\	2b\
2c\	2a/
2d\	2b\
[2e\	[2cc\
=99	=99
2e\]	2cc\]
4d\	4b\
4c\	4a/
2B\	2g/
2A/	[2a/
=100	=100
1B	2a/]
.	2g#i/
1Al	1al
=101||	=101||
*>L	*>L
!!LO:TX:Z=8:t=Choir 2
!!section: Beneplacitum est
!!!OMD: Beneplacitum est
2e\	2cc\
2e\	2cc\
2e\	2cc\
2e\	2cc\
=102	=102
1e	1cc
1e	1cc
=103	=103
2e\	2cc\
2e\	2cc\
1c	1cc
=104	=104
2c\	2a/
2d\	2b\
2e\	2cc\
[2f\	[2dd\
=105	=105
2f\]	2dd\]
2e\	1cc
1d	.
.	2b\
=106	=106
1c	1cc
1r	1r
=107	=107
1e	1cc
2e\	2cc\
2e\	2cc\
=108	=108
1e	1cc
2e\	2cc\
2e\	2cc\
=109	=109
1e	1cc
2d\	2b\
2c\	2a/
=110	=110
2d\	2b\
1e	1cc
2d\	2b\
=111	=111
2c\	2a/
1d	1b
2A/	[2a/
=112	=112
1B	2a/]
.	2g#i/
1Al	1al
=113||	=113||
*>M	*>M
!!LO:TX:Z=8:t=Choir 1
!!section: Gloria Patri
!!!OMD: Gloria Patri
1e	1cc
2e\	2cc\
2e\	2cc\
=114	=114
1d	1b
2e\	2cc\
[2f\	[2dd\
=115	=115
2f\]	2dd\]
2e\	1cc
1d	.
.	2b\
=116	=116
1c	1cc
1r	1r
=117	=117
1e	1cc
2e\	2cc\
2e\	2cc\
=118	=118
2d\	2b\
2c\	2a/
2d\	2b\
[2e\	[2cc\
=119	=119
2e\]	2cc\]
4d\	4b\
4c\	4a/
2B\	2g/
2A/	[2a/
=120	=120
1B	2a/]
.	2g#i/
1Al	1al
=121||	=121||
*>N	*>N
!!section: Sicut erat
!!!OMD: Sicut erat
!!LO:TX:Z=8:t=Choir 2
2e\	2cc\
2e\	2cc\
2e\	2cc\
2e\	2cc\
=122	=122
2e\	2cc\
2e\	2cc\
2e\	2cc\
2e\	2cc\
=123	=123
1c	1cc
2d\	2b\
2c\	2a/
=124	=124
2.B\	2.g/
4c\	4a/
2d\	2b\
2c\	[2cc\
=125	=125
1d	2cc\]
.	2b\
1c	1cc
=126	=126
1r	1r
2e\	2cc\
2e\	2cc\
=127	=127
2e\	2cc\
2e\	2cc\
1c	1cc
=128	=128
2e\	2cc\
2d\	2b\
2c\	2a/
[2d\	[2b\
=129	=129
2d\]	2b\]
2c\	1a
1B	.
.	2g#i/
=130	=130
0Al	0al
==	==
*-	*-
!!!RDF**kern: l=long note in original notation
!!!RDF**kern: i=editorial accidental
!!!ENC:	Chris Gage 07-31-2014
!!!END:	2014/10/07/
!!!EED:	Jesse Rodin
!!!EEV:	2014/10/18/
!!!ONB:	Translated from MusicXML and edited on 2014/10/18/ by Craig Sapp
!!muse2ps: C^@{COM}^i2I150v85,150Q16
